assets/src/images/maestro.svg

<svg width="750" height="471" viewBox="0 0 750 471" version="1.1" xmlns="http://www.w3.org/2000/svg" xmlns:xlink="http://www.w3.org/1999/xlink">
    <!-- Generator: Sketch 48.2 (47327) - http://www.bohemiancoding.com/sketch -->
    <desc>Created with Sketch.</desc>
    <defs></defs>
    <g id="Page-1" stroke="none" stroke-width="1" fill="none" fill-rule="evenodd">
        <g id="maestro" fill-rule="nonzero">
            <rect id="Rectangle-1" fill="#000000" x="0" y="0" width="750" height="471" rx="40"></rect>
            <path d="M675.000003,235.50625 C675.000003,334.639584 594.650002,415.002085 495.516668,415.002085 C396.395834,415.002085 316.0375,334.639584 316.0375,235.50625 C316.0375,136.364582 396.395834,55.997915 495.516668,55.997915 C594.650002,55.997915 675.000003,136.364582 675.000003,235.50625" id="Fill-1" fill="#D9222A"></path>
            <path d="M356.870834,349.489584 C351.9125,343.477084 347.345834,337.131251 343.195834,330.481251 L406.808334,330.481251 C410.625001,324.385417 414.070834,318.039584 417.150001,311.46875 L332.858333,311.46875 C329.9875,305.31875 327.433333,298.977084 325.2625,292.46875 L424.737501,292.46875 C430.725001,274.564583 433.966668,255.41875 433.966668,235.50625 C433.966668,222.460416 432.575001,209.74375 429.937501,197.493749 L320.075,197.493749 C321.466667,191.014583 323.216667,184.677083 325.283333,178.485416 L424.725001,178.485416 C422.541667,171.977083 420.004167,165.635416 417.133334,159.481249 L332.879167,159.481249 C335.954167,152.918749 339.408333,146.577082 343.216667,140.472916 L406.787501,140.472916 C402.641667,133.843749 398.062501,127.497916 393.116667,121.481249 L356.891667,121.481249 C362.4625,114.714582 368.520834,108.364582 375.004167,102.481249 C343.15,73.5979152 300.866667,55.997915 254.487499,55.997915 C155.358332,55.997915 74.999998,136.364582 74.999998,235.50625 C74.999998,334.639584 155.358332,415.002085 254.487499,415.002085 C300.875,415.002085 343.154167,397.406251 375.004167,368.527084 C381.5,362.635417 387.562501,356.268751 393.137501,349.489584 L356.870834,349.489584" id="Fill-2" fill="#0097D0"></path>
            <path d="M651.075003,335.543751 C651.075003,332.343751 653.670836,329.747917 656.875003,329.747917 C660.075003,329.747917 662.666669,332.343751 662.666669,335.543751 C662.666669,338.747917 660.075003,341.343751 656.875003,341.343751 C653.670836,341.343751 651.075003,338.747917 651.075003,335.543751 Z M656.875003,339.952084 C659.308336,339.952084 661.279169,337.985417 661.279169,335.543751 C661.279169,333.110417 659.308336,331.147917 656.875003,331.147917 C654.441669,331.147917 652.466669,333.110417 652.466669,335.543751 C652.466669,337.985417 654.441669,339.952084 656.875003,339.952084 Z M656.087503,338.089584 L654.904169,338.089584 L654.904169,332.997917 L657.054169,332.997917 C657.500003,332.997917 657.958336,333.002084 658.354169,333.256251 C658.770836,333.539584 659.000003,334.031251 659.000003,334.527084 C659.000003,335.110417 658.662503,335.639584 658.120836,335.843751 L659.054169,338.089584 L657.737503,338.089584 L656.962503,336.081251 L656.087503,336.081251 L656.087503,338.089584 Z M656.087503,335.210417 L656.745836,335.210417 C656.991669,335.210417 657.250003,335.227084 657.470836,335.110417 C657.666669,334.981251 657.770836,334.743751 657.770836,334.518751 C657.770836,334.331251 657.645836,334.102084 657.483336,334.006251 C657.270836,333.881251 656.941669,333.906251 656.720836,333.906251 L656.087503,333.906251 L656.087503,335.210417 Z" id="Fill-3" fill="#000000"></path>
            <path d="M372.445834,284.00625 C364.775,286.039584 357.358334,287.03125 349.516667,287.014584 C324.5,286.989584 311.470833,275.597917 311.470833,253.814583 C311.470833,228.35625 328.058333,209.63125 350.570834,209.63125 C368.9875,209.63125 380.745834,220.13125 380.745834,236.577083 C380.745834,242.035417 379.95,247.347917 378,254.872917 L333.5125,254.872917 C331.929167,265.50625 339.7,270.177083 352.925,270.177083 C360.85,270.177083 368.016667,268.752083 375.95,265.564583 L372.445834,284.00625 Z M360.483334,239.85625 C360.483334,238.247916 362.958334,226.822916 350.083334,226.572916 C342.975,226.572916 337.875,231.297916 335.8125,239.85625 L360.483334,239.85625 Z" id="Fill-4" fill="#000000"></path>
            <path d="M387.516667,234.864583 C387.516667,244.26875 392.812501,250.764583 404.845834,255.602083 C414.045834,259.372917 415.495834,260.460417 415.495834,263.822917 C415.495834,268.485417 411.429167,270.627083 402.404167,270.56875 C395.625001,270.51875 389.441667,269.697917 382.141667,267.672917 L378.9125,284.827084 C385.400001,286.33125 394.500001,286.827084 402.562501,287.014584 C426.587501,287.014584 437.679168,279.147917 437.679168,262.147917 C437.679168,251.93125 433.054168,245.914583 421.645834,241.435417 C412.108334,237.627083 410.987501,236.797916 410.987501,233.352083 C410.987501,229.302083 414.766667,227.252083 422.137501,227.252083 C426.600001,227.252083 432.716668,227.664583 438.516668,228.360416 L441.775001,211.11875 C435.862501,210.29375 426.891668,209.635416 421.700001,209.635416 C396.250001,209.635416 387.441667,221.09375 387.516667,234.864583" id="Fill-5" fill="#000000"></path>
            <path d="M299.275,285.785417 L280.6125,285.785417 L281.058333,277.964583 C275.366666,284.135417 267.7875,287.00625 257.499999,287.00625 C245.324999,287.00625 236.983333,278.68125 236.983333,266.710417 C236.983333,248.514583 251.483333,238.01875 276.4125,238.01875 C278.975,238.01875 282.233333,238.210416 285.579166,238.58125 C286.270833,236.147916 286.458333,235.102083 286.458333,233.772916 C286.458333,228.79375 282.5375,226.960416 272.045833,226.960416 C261.704166,227.002083 254.724999,228.53125 248.249999,230.272916 L251.437499,213.572916 C262.633333,210.727083 269.966666,209.63125 278.2625,209.63125 C297.566666,209.63125 307.7625,217.197916 307.7625,231.427083 C307.929167,235.222916 306.604167,242.839583 305.941667,246.172917 C305.183333,251.027083 299.833333,279.147917 299.275,285.785417 Z M282.895833,252.59375 C280.529166,252.352083 279.5,252.28125 277.883333,252.28125 C265.154166,252.28125 258.7,256.06875 258.7,263.547917 C258.7,268.239583 261.85,271.18125 266.758333,271.18125 C275.904166,271.18125 282.508333,263.53125 282.895833,252.59375 Z" id="Fill-6" fill="#000000"></path>
            <path d="M477.004168,284.60625 C470.879168,286.285417 466.108334,287.014584 460.945834,287.014584 C449.512501,287.014584 443.270834,281.172917 443.270834,270.764583 C442.912501,267.90625 445.704168,254.70625 446.337501,251.027083 C446.970834,247.335417 456.875001,193.535416 456.875001,193.535416 L479.087501,193.535416 L475.725001,211.335416 L487.116668,211.335416 L484.020835,229.50625 L472.579168,229.50625 C472.579168,229.50625 466.300001,261.035417 466.300001,263.439583 C466.300001,267.264583 468.616668,268.927083 473.933335,268.927083 C476.479168,268.927083 478.441668,268.689583 479.962501,268.235417 L477.004168,284.60625" id="Fill-7" fill="#000000"></path>
            <path d="M576.250002,209.63125 C559.970835,209.63125 547.250002,216.33125 539.862502,227.522916 L546.275002,210.927083 C534.458335,206.589583 526.841668,212.777083 519.950002,221.577083 C519.950002,221.577083 518.795835,223.039583 517.650002,224.377083 L517.650002,211.327083 L496.791668,211.327083 C493.966668,234.35625 488.970835,257.70625 485.062501,280.772917 L484.120835,285.79375 L506.558335,285.79375 C508.683335,274.085417 510.433335,264.58125 512.175002,257.00625 C516.941668,236.21875 524.962502,229.864583 537.004168,232.672916 C534.225002,238.652083 532.700002,245.564583 532.700002,253.227083 C532.700002,271.80625 542.791668,287.014584 567.850002,287.014584 C593.137502,287.014584 611.445836,273.50625 611.445836,242.70625 C611.445836,224.127083 599.245836,209.63125 576.250002,209.63125 Z M569.720835,268.947917 C561.795835,269.072917 556.991669,262.422917 556.991669,252.477083 C556.991669,240.685417 564.004169,227.364583 575.266669,227.364583 C584.354169,227.364583 587.466669,234.56875 587.466669,242.24375 C587.466669,259.022917 580.591669,268.947917 569.720835,268.947917 Z" id="Fill-8" fill="#000000"></path>
            <polyline id="Fill-9" fill="#000000" points="226.529166 285.79375 204.187499 285.79375 217.466666 215.839583 186.895832 285.79375 166.529165 285.79375 162.804165 216.24375 149.483332 285.79375 129.212498 285.79375 146.479165 194.797916 181.391666 194.797916 184.304166 245.522917 206.420832 194.797916 244.141666 194.797916 226.529166 285.79375"></polyline>
            <path d="M613.150002,274.385417 C613.150002,271.189583 615.745836,268.589583 618.945836,268.589583 C622.150002,268.589583 624.741669,271.189583 624.741669,274.385417 C624.741669,277.59375 622.150002,280.189583 618.945836,280.189583 C615.745836,280.189583 613.150002,277.59375 613.150002,274.385417 Z M618.945836,278.797917 C621.379169,278.797917 623.354169,276.81875 623.354169,274.385417 C623.354169,271.952083 621.379169,269.98125 618.945836,269.98125 C616.512502,269.98125 614.537502,271.952083 614.537502,274.385417 C614.537502,276.81875 616.512502,278.797917 618.945836,278.797917 Z M618.162502,276.93125 L616.975002,276.93125 L616.975002,271.847917 L619.125002,271.847917 C619.575002,271.847917 620.033336,271.847917 620.429169,272.097917 C620.837502,272.377083 621.075002,272.864583 621.075002,273.36875 C621.075002,273.947917 620.737502,274.485417 620.191669,274.685417 L621.125002,276.93125 L619.808336,276.93125 L619.037502,274.922917 L618.162502,274.922917 L618.162502,276.93125 Z M618.162502,274.04375 L618.820836,274.04375 C619.062502,274.04375 619.325002,274.060417 619.545836,273.947917 C619.741669,273.814583 619.841669,273.589583 619.841669,273.360417 C619.841669,273.164583 619.720836,272.94375 619.558336,272.847917 C619.345836,272.71875 619.016669,272.752083 618.795836,272.752083 L618.162502,272.752083 L618.162502,274.04375 Z" id="Fill-10" fill="#FFFFFF"></path>
            <path d="M378.054167,278.397917 C370.3875,280.43125 362.966667,281.427084 355.129167,281.410417 C330.1125,281.385417 317.083333,269.989583 317.083333,248.202083 C317.083333,222.752083 333.6625,204.022916 356.179167,204.022916 C374.6,204.022916 386.354167,214.51875 386.354167,230.964583 C386.354167,236.43125 385.554167,241.735417 383.612501,249.264583 L339.125,249.264583 C337.541667,259.89375 345.304167,264.572917 358.533334,264.572917 C366.458334,264.572917 373.620834,263.147917 381.5625,259.95625 L378.054167,278.397917 Z M366.091667,234.247916 C366.091667,232.64375 368.5625,221.214583 355.691667,220.96875 C348.583334,220.96875 343.4875,225.697916 341.420833,234.247916 L366.091667,234.247916 Z" id="Fill-11" fill="#FFFFFF"></path>
            <path d="M393.129167,229.252083 C393.129167,238.660416 398.416667,245.152083 410.454167,249.997917 C419.658334,253.764583 421.104167,254.85625 421.104167,258.210417 C421.104167,262.877083 417.037501,265.01875 408.016667,264.960417 C401.233334,264.914583 395.050001,264.089583 387.754167,262.064583 L384.516667,279.210417 C391.008334,280.727083 400.112501,281.222917 408.170834,281.410417 C432.195834,281.410417 443.291668,273.539583 443.291668,256.539583 C443.291668,246.322917 438.662501,240.302083 427.250001,235.827083 C417.712501,232.01875 416.595834,231.189583 416.595834,227.74375 C416.595834,223.69375 420.379167,221.64375 427.741668,221.64375 C432.212501,221.64375 438.325001,222.060416 444.129168,222.75625 L447.379168,205.510416 C441.466668,204.685416 432.500001,204.027083 427.312501,204.027083 C401.854167,204.027083 393.050001,215.48125 393.129167,229.252083" id="Fill-12" fill="#FFFFFF"></path>
            <path d="M304.8875,280.18125 L286.220833,280.18125 L286.670833,272.360417 C280.975,278.51875 273.395833,281.39375 263.1125,281.39375 C250.937499,281.39375 242.591666,273.06875 242.591666,261.10625 C242.591666,242.902083 257.087499,232.410416 282.020833,232.410416 C284.583333,232.410416 287.8375,232.602083 291.191666,232.972916 C291.883333,230.539583 292.066666,229.497916 292.066666,228.164583 C292.066666,223.18125 288.15,221.352083 277.658333,221.352083 C267.316666,221.39375 260.3375,222.927083 253.862499,224.664583 L257.045833,207.96875 C268.245833,205.11875 275.575,204.022916 283.875,204.022916 C303.179167,204.022916 313.370833,211.589583 313.370833,225.814583 C313.5375,229.614583 312.2125,237.227083 311.554167,240.56875 C310.791667,245.41875 305.441667,273.539583 304.8875,280.18125 Z M288.5,246.985417 C286.141666,246.739583 285.108333,246.672917 283.4875,246.672917 C270.766666,246.672917 264.308333,250.460417 264.308333,257.939583 C264.308333,262.635417 267.4625,265.572917 272.3625,265.572917 C281.516666,265.572917 288.120833,257.91875 288.5,246.985417 Z" id="Fill-13" fill="#FFFFFF"></path>
            <path d="M482.608335,279.002083 C476.487501,280.677083 471.712501,281.410417 466.554168,281.410417 C455.120834,281.410417 448.883334,275.564583 448.883334,265.15625 C448.520834,262.302083 451.316668,249.097917 451.945834,245.41875 C452.579168,241.727083 462.483334,187.927083 462.483334,187.927083 L484.691668,187.927083 L481.337501,205.727083 L492.729168,205.727083 L489.633335,223.897916 L478.191668,223.897916 C478.191668,223.897916 471.908335,255.427083 471.908335,257.83125 C471.908335,261.65625 474.229168,263.310417 479.541668,263.310417 C482.083335,263.310417 484.050001,263.08125 485.570835,262.61875 L482.608335,279.002083" id="Fill-14" fill="#FFFFFF"></path>
            <path d="M593.079169,236.635416 C593.079169,253.410417 586.200002,263.34375 575.325002,263.34375 C567.404169,263.45625 562.600002,256.81875 562.600002,246.86875 C562.600002,235.077083 569.608335,221.75625 580.870835,221.75625 C589.962502,221.75625 593.079169,228.96875 593.079169,236.635416 Z M617.058336,237.102083 C617.058336,218.522916 604.850002,204.022916 581.862502,204.022916 C555.412502,204.022916 538.312502,221.647916 538.312502,247.61875 C538.312502,266.197917 548.395835,281.410417 573.462502,281.410417 C598.750002,281.410417 617.058336,267.897917 617.058336,237.102083 Z" id="Fill-15" fill="#FFFFFF"></path>
            <path d="M502.395835,205.71875 C499.575001,228.747916 494.579168,252.09375 490.675001,275.16875 L489.729168,280.189583 L512.162502,280.189583 C520.250002,235.63125 522.962502,222.935416 539.904168,227.40625 L548.054168,206.31875 C536.237502,201.98125 528.629168,208.172916 521.745835,216.977083 C522.366668,213.014583 523.537502,209.19375 523.254168,205.71875 L502.395835,205.71875" id="Fill-16" fill="#FFFFFF"></path>
            <polyline id="Fill-17" fill="#FFFFFF" points="232.137499 280.189583 209.799999 280.189583 223.074999 210.23125 192.499999 280.189583 172.137499 280.189583 168.412499 210.635416 155.091665 280.189583 134.820832 280.189583 152.083332 189.189583 187.004166 189.189583 188.849999 245.522917 213.424999 189.189583 249.749999 189.189583 232.137499 280.189583"></polyline>
        </g>
    </g>
</svg>

<svg viewBox="0 0 750 471" xmlns="http://www.w3.org/2000/svg"><g fill="none"><rect width="750" height="471" rx="40" fill="#000"/><path d="M675 235.51c0 99.133-80.35 179.5-179.48 179.5-99.121 0-179.48-80.363-179.48-179.5C316.04 136.368 396.398 56 495.52 56 594.653 56 675 136.367 675 235.51" fill="#D9222A"/><path d="M356.87 349.49a177.908 177.908 0 0 1-13.675-19.008h63.612a178.69 178.69 0 0 0 10.342-19.013h-84.292a178.418 178.418 0 0 1-7.596-19h99.475c5.988-17.904 9.23-37.05 9.23-56.962 0-13.046-1.392-25.762-4.03-38.013h-109.86a178.214 178.214 0 0 1 5.208-19.008h99.442a181.442 181.442 0 0 0-7.591-19.004H332.88a180.85 180.85 0 0 1 10.338-19.008h63.57a181.433 181.433 0 0 0-13.67-18.992h-36.225a181.088 181.088 0 0 1 18.112-19c-31.854-28.883-74.138-46.483-120.52-46.483-99.13 0-179.49 80.367-179.49 179.51 0 99.133 80.358 179.5 179.49 179.5 46.388 0 88.667-17.596 120.52-46.475a180.337 180.337 0 0 0 18.133-19.038h-36.267" fill="#0097D0"/><path d="M651.08 335.54c0-3.2 2.596-5.796 5.8-5.796 3.2 0 5.792 2.596 5.792 5.796 0 3.204-2.592 5.8-5.792 5.8a5.799 5.799 0 0 1-5.8-5.8zm5.8 4.408a4.401 4.401 0 0 0 4.404-4.408 4.396 4.396 0 0 0-4.404-4.396 4.4 4.4 0 0 0-4.408 4.396 4.405 4.405 0 0 0 4.408 4.408zm-.787-1.862h-1.184v-5.092h2.15c.446 0 .904.004 1.3.258.417.284.646.775.646 1.271 0 .584-.337 1.113-.88 1.317l.934 2.246h-1.317l-.775-2.009h-.875v2.009zm0-2.88h.658c.246 0 .504.017.725-.1a.712.712 0 0 0 .3-.591.652.652 0 0 0-.288-.513c-.212-.125-.541-.1-.762-.1h-.634v1.305zM372.45 284.01c-7.67 2.033-15.088 3.025-22.929 3.008-25.017-.025-38.046-11.417-38.046-33.2 0-25.458 16.588-44.183 39.1-44.183 18.417 0 30.175 10.5 30.175 26.946 0 5.459-.796 10.771-2.746 18.296h-44.488c-1.583 10.633 6.188 15.304 19.412 15.304 7.925 0 15.092-1.425 23.025-4.612l-3.504 18.442zm-11.962-44.15c0-1.608 2.475-13.033-10.4-13.283-7.108 0-12.208 4.725-14.271 13.283h24.671zm27.032-5c0 9.404 5.296 15.9 17.329 20.738 9.2 3.77 10.65 4.858 10.65 8.22 0 4.663-4.067 6.805-13.092 6.747-6.78-.05-12.962-.871-20.262-2.896l-3.23 17.154c6.488 1.504 15.589 2 23.65 2.187 24.026 0 35.118-7.866 35.118-24.867 0-10.217-4.625-16.233-16.033-20.712-9.538-3.808-10.658-4.637-10.658-8.083 0-4.05 3.779-6.1 11.15-6.1 4.462 0 10.579.412 16.379 1.108l3.258-17.242c-5.912-.825-14.883-1.483-20.075-1.483-25.45 0-34.258 11.458-34.183 25.229m-88.241 50.93h-18.662l.446-7.82c-5.692 6.17-13.271 9.04-23.558 9.04-12.175 0-20.517-8.324-20.517-20.295 0-18.196 14.5-28.692 39.429-28.692 2.562 0 5.82.192 9.167.562.691-2.433.879-3.479.879-4.808 0-4.98-3.921-6.812-14.412-6.812-10.342.041-17.321 1.57-23.796 3.312l3.187-16.7c11.196-2.846 18.53-3.942 26.825-3.942 19.304 0 29.5 7.567 29.5 21.796.167 3.796-1.158 11.412-1.82 14.746-.759 4.855-6.109 32.975-6.667 39.612zm-16.379-33.192c-2.367-.242-3.396-.313-5.013-.313-12.729 0-19.183 3.788-19.183 11.268 0 4.691 3.15 7.633 8.059 7.633 9.146 0 15.75-7.65 16.138-18.588zM477 284.61c-6.125 1.68-10.896 2.408-16.058 2.408-11.433 0-17.675-5.841-17.675-16.25-.358-2.858 2.433-16.058 3.067-19.738.633-3.691 10.538-57.492 10.538-57.492h22.212l-3.363 17.8h11.392l-3.096 18.171h-11.442s-6.279 31.53-6.279 33.933c0 3.825 2.317 5.488 7.634 5.488 2.545 0 4.508-.238 6.029-.692L477 284.61m99.25-74.98c-16.279 0-29 6.7-36.388 17.892l6.412-16.596c-11.817-4.338-19.433 1.85-26.325 10.65 0 0-1.154 1.462-2.3 2.8v-13.05h-20.858c-2.825 23.029-7.82 46.379-11.729 69.446l-.941 5.02h22.438c2.125-11.707 3.875-21.211 5.617-28.787 4.766-20.788 12.788-27.142 24.829-24.333-2.78 5.979-4.305 12.892-4.305 20.554 0 18.579 10.092 33.788 35.15 33.788 25.288 0 43.596-13.508 43.596-44.308 0-18.58-12.2-33.075-35.196-33.075zm-6.53 59.317c-7.924.125-12.728-6.525-12.728-16.471 0-11.792 7.012-25.112 18.275-25.112 9.087 0 12.2 7.204 12.2 14.879 0 16.779-6.875 26.704-17.746 26.704zM226.53 285.79h-22.34l13.28-69.95-30.57 69.95h-20.37l-3.73-69.55-13.32 69.55h-20.27l17.27-90.99h34.91l2.91 50.72 22.12-50.72h37.72l-17.61 90.99" fill="#000"/><path d="M613.15 274.39a5.8 5.8 0 0 1 5.796-5.796c3.204 0 5.796 2.6 5.796 5.796a5.796 5.796 0 1 1-11.592 0zm5.796 4.412a4.414 4.414 0 0 0 4.408-4.412 4.407 4.407 0 0 0-4.408-4.404 4.406 4.406 0 0 0-4.409 4.404 4.414 4.414 0 0 0 4.409 4.412zm-.784-1.866h-1.187v-5.083h2.15c.45 0 .908 0 1.304.25.409.279.646.766.646 1.27 0 .58-.338 1.117-.883 1.317l.933 2.246h-1.317l-.77-2.008h-.876v2.008zm0-2.888h.659c.241 0 .504.017.725-.096a.702.702 0 0 0 .296-.587.635.635 0 0 0-.284-.513c-.212-.129-.541-.095-.762-.095h-.634v1.291zM378.05 278.4c-7.667 2.033-15.088 3.03-22.925 3.013-25.017-.026-38.046-11.422-38.046-33.209 0-25.45 16.579-44.179 39.096-44.179 18.421 0 30.175 10.496 30.175 26.942 0 5.467-.8 10.771-2.742 18.3H339.12c-1.583 10.63 6.18 15.308 19.408 15.308 7.925 0 15.088-1.425 23.03-4.616l-3.509 18.442zm-11.962-44.15c0-1.604 2.47-13.033-10.4-13.279-7.108 0-12.204 4.73-14.271 13.279h24.671zm27.042-5c0 9.408 5.287 15.9 17.325 20.746 9.204 3.767 10.65 4.858 10.65 8.213 0 4.666-4.067 6.808-13.088 6.75-6.783-.046-12.967-.871-20.262-2.896l-3.238 17.146c6.492 1.516 15.596 2.012 23.654 2.2 24.025 0 35.121-7.871 35.121-24.871 0-10.217-4.629-16.238-16.042-20.712-9.537-3.809-10.654-4.638-10.654-8.084 0-4.05 3.784-6.1 11.146-6.1 4.471 0 10.583.417 16.388 1.113l3.25-17.246c-5.912-.825-14.879-1.483-20.067-1.483-25.458 0-34.262 11.454-34.183 25.225m-88.24 50.929h-18.667l.45-7.82c-5.696 6.157-13.275 9.032-23.558 9.032-12.175 0-20.521-8.325-20.521-20.288 0-18.204 14.496-28.696 39.429-28.696 2.562 0 5.817.192 9.17.563.692-2.433.876-3.475.876-4.808 0-4.984-3.917-6.813-14.408-6.813-10.342.042-17.321 1.575-23.796 3.313l3.183-16.696c11.2-2.85 18.53-3.946 26.83-3.946 19.303 0 29.495 7.567 29.495 21.792.167 3.8-1.158 11.412-1.817 14.754-.762 4.85-6.112 32.97-6.666 39.612zm-16.388-33.196c-2.358-.246-3.392-.313-5.013-.313-12.72 0-19.178 3.788-19.178 11.268 0 4.695 3.154 7.633 8.054 7.633 9.154 0 15.758-7.654 16.138-18.588zM482.61 279c-6.12 1.675-10.896 2.408-16.054 2.408-11.433 0-17.671-5.846-17.671-16.254-.362-2.854 2.433-16.058 3.063-19.738.633-3.691 10.538-57.492 10.538-57.492h22.208l-3.355 17.8h11.392l-3.095 18.171h-11.442s-6.284 31.53-6.284 33.933c0 3.825 2.321 5.48 7.634 5.48 2.541 0 4.508-.23 6.029-.692l-2.963 16.383m110.47-42.359c0 16.775-6.88 26.708-17.754 26.708-7.92.112-12.725-6.525-12.725-16.475 0-11.792 7.008-25.112 18.271-25.112 9.092 0 12.208 7.212 12.208 14.879zm23.979.467c0-18.58-12.208-33.08-35.196-33.08-26.45 0-43.55 17.626-43.55 43.597 0 18.579 10.083 33.792 35.15 33.792 25.288 0 43.596-13.512 43.596-44.308zM502.4 205.72c-2.82 23.029-7.817 46.375-11.721 69.45l-.946 5.02h22.433c8.088-44.557 10.8-57.253 27.742-52.782l8.15-21.088c-11.817-4.338-19.425 1.854-26.308 10.658.621-3.963 1.792-7.784 1.508-11.258H502.4m-270.26 74.47H209.8l13.27-69.96-30.57 69.96h-20.36l-3.73-69.55-13.32 69.55h-20.27l17.26-91H187l1.85 56.33 24.57-56.33h36.33l-17.61 91" fill="#fff"/></g></svg>
